X: 1
T: Tea Gardens
C: Angus Chisholm
R: jig
S: Fiddle Hell Online 2020-11-15
Z: 2020 John Chambers <jc:trillian.mit.edu>
M: 6/8
L: 1/8
K: G
"^A"[|] c |\
"G"d^cd "D7"b2a | "G"Tg2d B2d | "C"TcBc e2c | "Am"A3 A2G || "D"TFDF A2d |
"D"f2d TA2B | "C"cBc "D7"edc | "G"B3 "D7"Bc^c || "G"d^cd "D7"dba | "G"Tg2d B2d | "C"cBc {cd}e2c |
"Am"A3 A2G || "D"FDF A2d | "D"f2d A2B | "C"TcBc "D7"bfa |[1 "G"g3 "D7"B2 :|[2 "G"g3 g2z ||
"^B"|:\
"G"B,DG BGD | B,DG Bdg | "Em"e^de "Bm"B2=d | "C"Tc3 (Tc2B) ||[1 "Am"ABc ABc | "D7"a2g Tf2e |
"D7"d^cd "C"ed=c | "G"B2 "D7"{Bc}d3 :|[2 "Am"ABc a2g | "D7"f2e c2b | "C"c'bc' "D7"e2f | "G"g3 "D7"B2 "_d.C."y|]
